src/assets/images/mdi_linkedin.svg

<svg width="30" height="31" viewBox="0 0 30 31" fill="none" xmlns="http://www.w3.org/2000/svg">
<g id="mdi:linkedin">
<path id="Vector" d="M23.75 4.19141C24.413 4.19141 25.0489 4.4548 25.5178 4.92364C25.9866 5.39248 26.25 6.02837 26.25 6.69141V24.1914C26.25 24.8544 25.9866 25.4903 25.5178 25.9592C25.0489 26.428 24.413 26.6914 23.75 26.6914H6.25C5.58696 26.6914 4.95107 26.428 4.48223 25.9592C4.01339 25.4903 3.75 24.8544 3.75 24.1914V6.69141C3.75 6.02837 4.01339 5.39248 4.48223 4.92364C4.95107 4.4548 5.58696 4.19141 6.25 4.19141H23.75ZM23.125 23.5664V16.9414C23.125 15.8606 22.6957 14.8242 21.9315 14.0599C21.1672 13.2957 20.1308 12.8664 19.05 12.8664C17.9875 12.8664 16.75 13.5164 16.15 14.4914V13.1039H12.6625V23.5664H16.15V17.4039C16.15 16.4414 16.925 15.6539 17.8875 15.6539C18.3516 15.6539 18.7967 15.8383 19.1249 16.1665C19.4531 16.4947 19.6375 16.9398 19.6375 17.4039V23.5664H23.125ZM8.6 11.1414C9.15695 11.1414 9.6911 10.9202 10.0849 10.5263C10.4788 10.1325 10.7 9.59836 10.7 9.04141C10.7 7.87891 9.7625 6.92891 8.6 6.92891C8.03973 6.92891 7.50241 7.15147 7.10624 7.54764C6.71007 7.94381 6.4875 8.48114 6.4875 9.04141C6.4875 10.2039 7.4375 11.1414 8.6 11.1414ZM10.3375 23.5664V13.1039H6.875V23.5664H10.3375Z" fill="black"/>
</g>
</svg>

<svg width="30" height="31" fill="none" xmlns="http://www.w3.org/2000/svg"><path d="M23.75 4.191a2.5 2.5 0 0 1 2.5 2.5v17.5a2.5 2.5 0 0 1-2.5 2.5H6.25a2.5 2.5 0 0 1-2.5-2.5v-17.5a2.5 2.5 0 0 1 2.5-2.5h17.5Zm-.625 19.375v-6.625a4.075 4.075 0 0 0-4.075-4.075c-1.063 0-2.3.65-2.9 1.625v-1.387h-3.487v10.462h3.487v-6.162c0-.963.775-1.75 1.738-1.75a1.75 1.75 0 0 1 1.75 1.75v6.162h3.487ZM8.6 11.141a2.1 2.1 0 0 0 2.1-2.1A2.107 2.107 0 0 0 8.6 6.93 2.112 2.112 0 0 0 6.488 9.04c0 1.163.95 2.1 2.112 2.1Zm1.738 12.425V13.104H6.875v10.462h3.463Z" fill="#000"/></svg>
